icons/mobile/24/svg/microphone-24.svg

<svg width="24" height="24" viewBox="0 0 24 24" fill="none" xmlns="http://www.w3.org/2000/svg">
<path d="M17.2725 11.6797C17.3807 11.2079 17.8505 10.9105 18.3203 11.0234C18.7911 11.1306 19.0855 11.5994 18.9776 12.0713C18.2953 15.0541 15.8495 17.2163 12.875 17.5742V20.25H16.125C16.6083 20.25 17 20.6418 17 21.125C17 21.6082 16.6083 22 16.125 22H7.87503C7.39178 22 7.00003 21.6082 7.00003 21.125C7.00003 20.6418 7.39178 20.25 7.87503 20.25H11.125V17.5742C8.15058 17.2165 5.70476 15.055 5.02249 12.0713C4.91552 11.5994 5.20893 11.1316 5.67971 11.0234C6.14459 10.9115 6.6194 11.2089 6.72756 11.6797C7.29156 14.1517 9.46003 15.877 12 15.877C14.54 15.8769 16.7085 14.1507 17.2725 11.6797Z" fill="black"/>
<path fill-rule="evenodd" clip-rule="evenodd" d="M12 2C14.1237 2 15.8677 3.67153 15.9551 5.79395L15.9893 6.87891C15.997 7.24682 16.001 7.62061 16.001 8C16.001 8.69804 15.9876 9.42738 15.9561 10.1846C15.8688 12.3035 14.1376 14 12.001 14C9.94362 14 8.24219 12.4311 8.05862 10.4033L8.04592 10.2061C8.01645 9.49448 8.00003 8.75845 8.00003 8C8.00003 7.30196 8.0134 6.57262 8.04495 5.81543C8.13223 3.69645 9.8634 2 12 2ZM12 3.75C10.8169 3.75 9.84215 4.69108 9.79299 5.8877C9.76255 6.61841 9.75003 7.32412 9.75003 8C9.75003 8.73349 9.76545 9.44542 9.79397 10.1338L9.81448 10.3525C9.96559 11.4303 10.8887 12.25 12.001 12.25C13.1841 12.25 14.159 11.308 14.208 10.1113C14.2385 9.38061 14.251 8.67588 14.251 8C14.251 7.63319 14.2468 7.27179 14.2393 6.91602L14.2071 5.86621C14.1584 4.68267 13.1864 3.75 12 3.75Z" fill="black"/>
</svg>

<!-- This Source Code Form is subject to the terms of the Mozilla Public
   - License, v. 2.0. If a copy of the MPL was not distributed with this
   - file, You can obtain one at http://mozilla.org/MPL/2.0/. -->
<svg xmlns="http://www.w3.org/2000/svg" width="24" height="24" fill="none" viewBox="0 0 24 24">
    <path fill="#000" d="M17.273 11.68a.87.87 0 0 1 1.047-.657.875.875 0 0 1 .658 1.048 7.11 7.11 0 0 1-6.103 5.503v2.676h3.25a.875.875 0 1 1 0 1.75h-8.25a.875.875 0 0 1 0-1.75h3.25v-2.676a7.11 7.11 0 0 1-6.103-5.503.875.875 0 0 1 1.706-.391A5.38 5.38 0 0 0 12 15.877a5.38 5.38 0 0 0 5.273-4.197" />
    <path fill="#000" fill-rule="evenodd" d="M12 2a3.956 3.956 0 0 1 3.955 3.794l.034 1.085a54 54 0 0 1-.033 3.306C15.87 12.303 14.138 14 12.001 14a3.956 3.956 0 0 1-3.942-3.597l-.013-.197a53 53 0 0 1-.001-4.39C8.132 3.695 9.863 2 12 2m0 1.75a2.22 2.22 0 0 0-2.207 2.138 51 51 0 0 0 .001 4.246l.02.218a2.205 2.205 0 0 0 2.187 1.898 2.22 2.22 0 0 0 2.207-2.139 51 51 0 0 0 .031-3.195l-.032-1.05A2.206 2.206 0 0 0 12 3.75" clip-rule="evenodd" />
</svg>
